src/assets/icons/ic_logo.svg

<?xml version="1.0" encoding="UTF-8"?>
<svg width="63px" height="54px" viewBox="0 0 63 54" version="1.1" xmlns="http://www.w3.org/2000/svg" xmlns:xlink="http://www.w3.org/1999/xlink">
    <!-- Generator: Sketch 49 (51002) - http://www.bohemiancoding.com/sketch -->
    <title>paw-print-</title>
    <desc>Created with Sketch.</desc>
    <defs></defs>
    <g id="Dashboard-Checkout" stroke="none" stroke-width="1" fill="none" fill-rule="evenodd">
        <g id="Tela-01-Dashboard-Checkout" transform="translate(-26.000000, -21.000000)" fill="#FFFFFF" fill-rule="nonzero">
            <g id="paw-print-" transform="translate(26.000000, 21.000000)">
                <path d="M20.9995222,24 C25.9629413,24 30,18.6178606 30,12.0005538 C30,5.38372177 25.9627821,0 20.9995222,0 C16.0375365,0 12,5.38356354 12,12.0005538 C12,18.6178606 16.0375365,24 20.9995222,24 Z" id="Shape"></path>
                <path d="M48.1382035,36.1722365 C47.9500135,35.9215973 47.7696174,35.6852441 47.673168,35.482066 C45.6215883,31.1889771 39.9978082,26.12778 30.8867486,26.0019048 L30.5361859,26 C21.5650916,26 15.9832037,30.7932561 13.749929,35.2809515 C13.6728019,35.4344462 13.5031224,35.6336559 13.3233757,35.8442944 C13.1106674,36.091124 12.9002324,36.343668 12.7203234,36.6181171 C10.8337144,39.4872135 9.87181827,42.7175859 10.013732,45.7133511 C10.1624655,48.8938814 11.5246105,51.448528 13.8426438,52.9058544 C14.7792098,53.4939596 15.7898178,53.7903139 16.8501118,53.7903139 C19.0364608,53.7903139 21.0381921,52.5864839 23.3578491,51.1921745 C24.8326808,50.3035879 26.3560619,49.3867469 28.0481483,48.7005448 C28.2377997,48.6394326 29.0149156,48.5460977 30.2858071,48.5460977 C31.7970103,48.5460977 32.8823097,48.6775285 33.114178,48.7557838 C34.7659959,49.4686531 36.2166341,50.4037484 37.619697,51.3063034 C39.7706487,52.6922 41.8016071,54 44.0051676,54 C44.9508265,54 45.8674206,53.7560276 46.7322179,53.275702 C51.5030539,50.6259744 52.4118542,43.3561682 48.7592793,37.0709819 C48.5759604,36.7555797 48.3575691,36.4611303 48.1382035,36.1722365 Z" id="Shape"></path>
                <path d="M41.0009557,24 C45.9619857,24 50,18.6178606 50,12.0005538 C50,5.38372177 45.9619857,0 41.0009557,0 C36.0370587,0 32,5.38356354 32,12.0005538 C32,18.6178606 36.0370587,24 41.0009557,24 Z" id="Shape"></path>
                <path d="M55.4991578,18 C51.292346,18 48,22.1732586 48,27.5009667 C48,32.826258 51.2943673,37 55.4991578,37 C59.7036114,37 63,32.826258 63,27.5009667 C63,22.1734197 59.7056327,18 55.4991578,18 Z" id="Shape"></path>
                <path d="M15,27.5009667 C15,22.1734197 11.7054847,18 7.5003369,18 C3.29502066,18 0,22.1734197 0,27.5009667 C0,32.826258 3.29502066,37 7.5003369,37 C11.7056531,37 15,32.826258 15,27.5009667 Z" id="Shape"></path>
            </g>
        </g>
    </g>
</svg>

<svg xmlns="http://www.w3.org/2000/svg" viewBox="0 0 63 54"><g fill-rule="nonzero"><path d="M21 24c4.963 0 9-5.382 9-12 0-6.616-4.037-12-9-12-4.962 0-9 5.384-9 12 0 6.618 4.038 12 9 12zM48.138 36.172c-.188-.25-.368-.487-.465-.69-2.051-4.293-7.675-9.354-16.786-9.48l-.35-.002c-8.972 0-14.554 4.793-16.787 9.281-.077.153-.247.353-.427.563-.212.247-.423.5-.603.774-1.886 2.87-2.848 6.1-2.706 9.095.148 3.18 1.51 5.736 3.829 7.193a5.58 5.58 0 003.007.884c2.186 0 4.188-1.204 6.508-2.598 1.475-.888 2.998-1.805 4.69-2.491.19-.062.967-.155 2.238-.155 1.511 0 2.596.132 2.828.21 1.652.713 3.103 1.648 4.506 2.55C39.77 52.692 41.802 54 44.005 54c.946 0 1.862-.244 2.727-.724 4.771-2.65 5.68-9.92 2.027-16.205a8.903 8.903 0 00-.62-.899zM41.001 24C45.962 24 50 18.618 50 12c0-6.616-4.038-12-8.999-12C36.037 0 32 5.384 32 12c0 6.618 4.037 12 9.001 12zM55.5 18c-4.208 0-7.5 4.173-7.5 9.501C48 32.826 51.294 37 55.5 37c4.204 0 7.5-4.174 7.5-9.499C63 22.173 59.706 18 55.5 18zM15 27.501C15 22.173 11.705 18 7.5 18S0 22.173 0 27.501C0 32.826 3.295 37 7.5 37c4.206 0 7.5-4.174 7.5-9.499z"/></g></svg>
